src/assets/img/check_box.svg

<svg width="18" height="18" viewBox="0 0 18 18" fill="none" xmlns="http://www.w3.org/2000/svg">
<path d="M7.6 10.4L5.45 8.25C5.26667 8.06667 5.03333 7.975 4.75 7.975C4.46667 7.975 4.23333 8.06667 4.05 8.25C3.86667 8.43333 3.775 8.66667 3.775 8.95C3.775 9.23333 3.86667 9.46667 4.05 9.65L6.9 12.5C7.1 12.7 7.33333 12.8 7.6 12.8C7.86667 12.8 8.1 12.7 8.3 12.5L13.95 6.85C14.1333 6.66667 14.225 6.43333 14.225 6.15C14.225 5.86667 14.1333 5.63333 13.95 5.45C13.7667 5.26667 13.5333 5.175 13.25 5.175C12.9667 5.175 12.7333 5.26667 12.55 5.45L7.6 10.4ZM2 18C1.45 18 0.979167 17.8042 0.5875 17.4125C0.195833 17.0208 0 16.55 0 16V2C0 1.45 0.195833 0.979167 0.5875 0.5875C0.979167 0.195833 1.45 0 2 0H16C16.55 0 17.0208 0.195833 17.4125 0.5875C17.8042 0.979167 18 1.45 18 2V16C18 16.55 17.8042 17.0208 17.4125 17.4125C17.0208 17.8042 16.55 18 16 18H2ZM2 16H16V2H2V16Z" fill="#FFFCF3"/>
</svg>

<svg xmlns="http://www.w3.org/2000/svg" width="18" height="18" fill="none"><path fill="#FFFCF3" d="M7.6 10.4 5.45 8.25a.948.948 0 0 0-.7-.275.948.948 0 0 0-.7.275.948.948 0 0 0-.275.7c0 .283.092.517.275.7L6.9 12.5c.2.2.433.3.7.3.267 0 .5-.1.7-.3l5.65-5.65a.948.948 0 0 0 .275-.7.948.948 0 0 0-.275-.7.948.948 0 0 0-.7-.275.948.948 0 0 0-.7.275L7.6 10.4ZM2 18c-.55 0-1.02-.196-1.413-.587A1.926 1.926 0 0 1 0 16V2C0 1.45.196.98.588.587A1.926 1.926 0 0 1 2 0h14c.55 0 1.02.196 1.413.588C17.803.979 18 1.45 18 2v14c0 .55-.196 1.02-.587 1.413A1.926 1.926 0 0 1 16 18H2Zm0-2h14V2H2v14Z"/></svg>
